resources/haticons/SVG/x-pack.svg

<!-- Generated by IcoMoon.io -->
<svg version="1.1" xmlns="http://www.w3.org/2000/svg" width="24" height="24" viewBox="0 0 24 24">
<title>x-pack</title>
<path fill="#005571" d="M13.7 19.55l5.88-5.89 3.35 3.36c0.646 0.646 1.046 1.539 1.046 2.525s-0.4 1.879-1.046 2.525l-0.83 0.83c-0.646 0.646-1.539 1.046-2.525 1.046s-1.879-0.4-2.525-1.046l-0-0zM22.92 1.9l-0.83-0.83c-0.646-0.646-1.539-1.046-2.525-1.046s-1.879 0.4-2.525 1.046l-0 0-5.040 5.050-5.050-5.050c-0.646-0.646-1.539-1.046-2.525-1.046s-1.879 0.4-2.525 1.046l-0.83 0.83c-0.646 0.646-1.046 1.539-1.046 2.525s0.4 1.879 1.046 2.525l5.050 5.050-5.050 5.050c-0.646 0.646-1.046 1.539-1.046 2.525s0.4 1.879 1.046 2.525l0.83 0.83c0.646 0.646 1.539 1.046 2.525 1.046s1.879-0.4 2.525-1.046l15.98-15.98c0.643-0.646 1.041-1.536 1.041-2.52 0-0.989-0.402-1.883-1.051-2.53l-0-0z"></path>
</svg>

<svg xmlns="http://www.w3.org/2000/svg" width="24" height="24"><path fill="#005571" d="M13.7 19.55l5.88-5.89 3.35 3.36c.646.646 1.046 1.539 1.046 2.525s-.4 1.879-1.046 2.525l-.83.83c-.646.646-1.539 1.046-2.525 1.046s-1.879-.4-2.525-1.046zM22.92 1.9l-.83-.83C21.444.424 20.551.024 19.565.024s-1.879.4-2.525 1.046L12 6.12 6.95 1.07C6.304.424 5.411.024 4.425.024S2.546.424 1.9 1.07l-.83.83C.424 2.546.024 3.439.024 4.425s.4 1.879 1.046 2.525L6.12 12l-5.05 5.05c-.646.646-1.046 1.539-1.046 2.525s.4 1.879 1.046 2.525l.83.83c.646.646 1.539 1.046 2.525 1.046s1.879-.4 2.525-1.046L22.93 6.95a3.56 3.56 0 0 0 1.041-2.52A3.56 3.56 0 0 0 22.92 1.9z"/></svg>
